X: 3
T: Ashokan Farewell
R: waltz
M: 3/4
L: 1/8
K: Dmaj
|: AB/c/ |d3 c BA | F4 EF | G2 GF ED | B2 d3 B | A2 d3 F | A2 d2 e2 | f3 g f2 | e4 fe |
d2 dc BA | F/G/F E2 F2 | G3 F ED | B4 dB | A2 d3 F | A2 d2 f2 | A2 c3 e | d4 :|
|: FG |A3 F D2 | d4 A2 | B3 c dB |A2 F/G/F E2 | F3 E D2 | B4 G2 | A6- | A4 FE |
D2 F3 A | =c4 d^c | B2 Bc dB | A2 F3 D | A2 d3 f | A2 d/e/d F2 | E2 D3 D | D4 :|


Tune 4997	Setting 22313

